X: 31648
T: Parks Of Fochabers, The
R: reel
M: 4/4
K: Fmajor
|:c|A/B/c cf a/g/f/e/ fd|cA dA BG GB|A/B/c cf a/g/f/e/ fd|c>A B>G F/F/F F:|
|:B|A/B/c Fc dB fd|cA af gG G>B|A/B/c Fc dB fd|c>A B>G F/F/F F:|

